X:292
T: Posaunen im Ehestand (3-94), S. 259
N: P1067
O: Lothringen
S: PINCK, Louis: Verklingende Weisen, Bd3, Metz 1933]
R: Eheverdruá]
M: 3/8
L: 1/16
K: Ab
E2 | A4A2 | A3GA2 | B4G2 | E4c2 | A6- | A2z2
A2 | d4d2 | d3cB2 | c4c2 | e4
c2 | B2B2B2 | B3cB2 | A4B2 | c6
A3GF2 | B3AG2 | A6- | A2z2

